packages/swarm-icons/src/icons/line/Private.svg

<svg xmlns="http://www.w3.org/2000/svg" width="24" height="24" viewBox="0 0 24 24">
  <path fill="#757575" d="M11.5068492,15.9170492 C10.920678,15.7130773 10.5,15.155666 10.5,14.5 C10.5,13.6715729 11.1715729,13 12,13 C12.8284271,13 13.5,13.6715729 13.5,14.5 C13.5,15.155666 13.079322,15.7130773 12.4931508,15.9170492 C12.4976556,15.9440293 12.5,15.9717409 12.5,16 L12.5,18 C12.5,18.2761424 12.2761424,18.5 12,18.5 C11.7238576,18.5 11.5,18.2761424 11.5,18 L11.5,16 C11.5,15.9717409 11.5023444,15.9440293 11.5068492,15.9170492 Z M7.5,9.5 L16.5,9.5 L16.5,8 C16.5,5.51471863 14.4852814,3.5 12,3.5 C9.51471863,3.5 7.5,5.51471863 7.5,8 L7.5,9.5 Z M17.5,9.55000906 C18.6411202,9.78164422 19.5,10.790521 19.5,12 L19.5,19 C19.5,20.3807119 18.3807119,21.5 17,21.5 L7,21.5 C5.61928813,21.5 4.5,20.3807119 4.5,19 L4.5,12 C4.5,10.790521 5.35887984,9.78164422 6.5,9.55000906 L6.5,8 C6.5,4.96243388 8.96243388,2.5 12,2.5 C15.0375661,2.5 17.5,4.96243388 17.5,8 L17.5,9.55000906 Z M7,10.5 C6.17157288,10.5 5.5,11.1715729 5.5,12 L5.5,19 C5.5,19.8284271 6.17157288,20.5 7,20.5 L17,20.5 C17.8284271,20.5 18.5,19.8284271 18.5,19 L18.5,12 C18.5,11.1715729 17.8284271,10.5 17,10.5 L7,10.5 Z"/>
</svg>

<svg xmlns="http://www.w3.org/2000/svg" width="24" height="24"><path fill="#757575" d="M11.507 15.917a1.5 1.5 0 11.986 0A.503.503 0 0112.5 16v2a.5.5 0 11-1 0v-2c0-.028.002-.056.007-.083zM7.5 9.5h9V8a4.5 4.5 0 10-9 0v1.5zm10 .05a2.5 2.5 0 012 2.45v7a2.5 2.5 0 01-2.5 2.5H7A2.5 2.5 0 014.5 19v-7a2.5 2.5 0 012-2.45V8a5.5 5.5 0 0111 0v1.55zM7 10.5A1.5 1.5 0 005.5 12v7A1.5 1.5 0 007 20.5h10a1.5 1.5 0 001.5-1.5v-7a1.5 1.5 0 00-1.5-1.5H7z"/></svg>
